image/about--yuma__body-logo.svg

<svg fill="none" height="13" viewBox="0 0 200 13" width="200" xmlns="http://www.w3.org/2000/svg"><g fill="#1e1e1e"><path d="m30.8475.519735c.1454-.5095399 1.5623-.435651 2.0197-.39234.4097.038215.6714.150321.9754.422925l3.8543 9.22266 3.9706-9.141148c.2617-.733737 2.8789-.6471103 2.8789-.109546v11.581814c-.6424.2268-1.0839.2268-1.7263 0v-10.41751l-4.3645 10.34361c-.5842.4153-1.5623.4051-1.8372-.3286-1.1421-3.12604-2.559-6.16799-3.7037-9.29147-.074-.20126-.1242-.39999-.111-.614h-.3436l.111 10.02777c-.1295.6446-1.2504.4993-1.7236.2802z"/><path d="m85.754 1.6841c-.2802-.07388-.3489.43565-.4309.63692-1.3112 3.17444-2.5986 6.35651-3.9177 9.52588-.3516.6267-1.2161.5579-1.758.1758l-3.9362-10.03542-.3146-.30573c.0185.64457-.0291 1.29933-.0053 1.9439.0846 2.36681.3965 5.67627.1216 7.97685-.119 1.0038-1.639.7821-1.7289.3312l.1084-11.533443c.23-.3694162 1.7024-.3413844 2.1307-.264953.5128.091717.8645.667494 1.0627 1.082766 1.2478 2.61649 2.1096 5.66863 3.323 8.33352.0608.13503-.0053.27006.2247.22165l3.9706-9.225211c.4917-.6241859 1.8848-.4585912 2.6039-.313372.2167.23184.2537.540115.2828.838193.3225 3.36806-.2432 7.21509-.0132 10.63665-.0899.7465-1.2319.721-1.7183.3388v-10.36145z"/><path d="m107.933.155459c3.125-.035668 6.842-.540101 8.576 2.560451 1.171 2.09166.976 5.97689-.711 7.78319-1.28 1.3707-2.823 1.628-4.661 1.7197-.531.0255-3.246.0917-3.463-.2216v-11.640466l.257-.198718zm1.475 1.306981-.171.1656v8.97806l.171.1656h2.993c.087 0 1.383-.6089 1.546-.7286 2.203-1.59997 2.062-6.7132-.486-8.05075-.159-.08407-1.33-.53247-1.404-.53247h-2.646z"/><path d="m51.7712 12.0761c-.3146.3006-1.6892.3312-1.6971-.1325l4.3645-11.653174c.1982-.2191023 1.5834-.2242013 1.8848-.137579.2617.07643.4098.496811.5129.726104 1.0098 2.244519 1.935 5.046999 2.7942 7.393429.1797.49425 1.3138 3.54892 1.2504 3.75272-.23.4586-1.4487.3261-1.7236.0281-.3701-.4-.7904-2.78723-1.2187-2.92735l-5.1047.03567c-.3225.18599-.7692 2.63428-1.06 2.91198zm1.8108-4.29543c.9887.13502 2.6119 0 3.6825 0 .0582 0 .1877-.18344.1771-.27516l-2.017-5.59729-2.1175 5.7094c0 .04076.2459.15795.2749.1605z"/><path d="m153.81 12.0736c-.402-.3669-.804-2.77956-1.084-2.94516-1.552.10955-3.487-.20891-4.994-.02548-.127.01529-.259-.01019-.341.11465-.267.49935-.695 2.57829-1.005 2.85599-.378.3414-1.26.2802-1.689.0178l4.555-11.94105h1.806l.394.619086 4.049 10.960164c.18.8051-1.337.6675-1.691.344zm-5.613-4.2929h3.799c.034 0 .204-.1656.156-.25477l-2.112-5.61767-2.02 5.59474c0 .09937.093.25223.177.2777z"/><path d="m14.6399.152926c.3225-.0866219 1.4566-.1808816 1.5756.16051.1745 2.489104-.1798 5.171834.0106 7.638004.1427 1.82415 1.0362 3.02156 3.0559 3.05216 1.7844.0255 2.8471-1.08279 3.0507-2.72351l.0158-7.964109c.0978-.2904374 1.5438-.2394781 1.6602-.078973l.037 8.142442c-.1481 4.76675-8.0391 5.54125-9.3 1.2178-.4706-1.62034-.3913-7.00872-.2485-8.85835.0158-.203816.0317-.407635.1401-.585974z"/><path d="m193.952 7.66859v4.43301c-.648.2726-1.073.214-1.726 0v-11.581853c0-.022929.288-.303176.346-.331201.27-.1171942 3.466-.1044549 3.968-.056049 2.768.267509 4.05 2.484003 3.201 4.965463-.827 2.42286-3.516 2.5961-5.789 2.57063zm0-1.43945h2.361c.338 0 1.229-.64967 1.44-.94011.627-.86367.526-2.79737-.465-3.43175-.09-.05859-.812-.39233-.859-.39233h-2.475v4.76674z"/><path d="m101.063 1.46244h-5.0652v3.76805h4.3172c.404.36942.396.97067 0 1.3299h-4.3172v4.15531c.185.2751.4494.056.7428.0509 1.1341-.0229 2.7123-.1019 3.8044.0051.994.0968.756.4917.732 1.3146-.122.0586-.259.0994-.397.1147-1.2447.1529-4.4777.1376-5.7467.0102-.6582-.0663-.8089-.1987-.8697-.8255-.3225-3.37822.2564-7.22015 0-10.649351-.0714-.163053.3384-.603803.4098-.603803h6.3316c.486.430561.24.843285.058 1.329894z"/><path d="m140.171 2.43311c-.269.32865-1.269-.50445-1.62-.65986-2.239-.985959-4.433-.15286-5.221 2.10695-1.182 3.38589.235 8.2495 4.877 6.8024.41-.1274 1.708-.96562 1.922-.90448.264.07643.214.82288.177 1.04198-.174 1.042-2.82 1.5949-3.746 1.6025-7.005.0535-6.891-10.77673-1.657-12.236563 1.303-.364321 4.087-.2369342 5.073.771955.328.336298.489 1.118438.198 1.475118z"/><path d="m4.60242 5.89546 2.70699-5.650792c.54193-.3031764 1.09178-.1554144 1.66808-.112103l-.05287.557946-3.60051 6.840579-.04494 4.49921c-.12425.3516-1.58349.4229-1.70774-.2114-.25114-1.2611.20356-3.17702-.03172-4.51456l-3.4736213-6.629106-.0660887-.545215c.523423-.0382151 1.40108-.1910823 1.79233.214002l2.81009 5.548889z"/><path d="m181.982.132546v10.639154h4.547c.322 0 .663 1.2917-.119 1.4395-1.692-.1198-3.63.1681-5.293 0-.661-.0663-.809-.2013-.869-.8255-.328-3.43936.246-7.36791.018-10.858262l.188-.394892z"/><path d="m161.148.132546h1.528c.145.050954.172.267504.188.397437.301 2.320957.098 6.407467.016 8.863447-.016.44839-.339 1.02417.052 1.38087h4.376c.346 0 .33 1.0649.272 1.3146-.093.0459-.196.079-.299.0968-.983.1733-4.084.1248-5.157.0331-.323-.028-.741-.0611-.976-.2802z"/><path d="m124.987.147842.018 11.788158c-.095.4714-1.506.5351-1.615 0v-11.528289l.111-.224194c.51-.1656008.968-.1299402 1.486-.035675z"/></g></svg>

<svg width="200" height="13" viewBox="0 0 200 13" fill="none" xmlns="http://www.w3.org/2000/svg">
<path d="M30.8475 0.519735C30.9929 0.0101951 32.4098 0.084084 32.8672 0.127395C33.2769 0.16561 33.5386 0.277716 33.8426 0.55032L37.6969 9.77298L41.6675 0.631832C41.9292 -0.101905 44.5464 -0.0152783 44.5464 0.522286V12.1041C43.904 12.3309 43.4625 12.3309 42.8201 12.1041V1.68659L38.4556 12.0302C37.8714 12.4455 36.8933 12.4353 36.6184 11.7016C35.4763 8.57556 34.0594 5.53361 32.9147 2.41013C32.8407 2.20887 32.7905 2.01014 32.8037 1.79613H32.4601L32.5711 11.8239C32.4416 12.4685 31.3207 12.3232 30.8475 12.1041V0.519735Z" fill="#1E1E1E"/>
<path d="M85.754 1.6841C85.4738 1.61022 85.4051 2.11975 85.3231 2.32102C84.0119 5.49546 82.7245 8.67753 81.4054 11.8469C81.0538 12.4736 80.1893 12.4048 79.6474 12.0227L75.7112 1.98728L75.3966 1.68155C75.4151 2.32612 75.3675 2.98088 75.3913 3.62545C75.4759 5.99226 75.7878 9.30172 75.5129 11.6023C75.3939 12.6061 73.8739 12.3844 73.784 11.9335L73.8924 0.400057C74.1224 0.0306408 75.5948 0.0586726 76.0231 0.135104C76.5359 0.226821 76.8876 0.802598 77.0858 1.21787C78.3336 3.83436 79.1954 6.8865 80.4088 9.55139C80.4696 9.68642 80.4035 9.82145 80.6335 9.77304L84.6041 0.547829C85.0958 -0.0763569 86.4889 0.0892378 87.208 0.234457C87.4247 0.466297 87.4617 0.774572 87.4908 1.07265C87.8133 4.44071 87.2476 8.28774 87.4776 11.7093C87.3877 12.4558 86.2457 12.4303 85.7593 12.0481V1.68665L85.754 1.6841Z" fill="#1E1E1E"/>
<path d="M107.933 0.155459C111.058 0.119791 114.775 -0.384642 116.509 2.71591C117.68 4.80757 117.485 8.6928 115.798 10.4991C114.518 11.8698 112.975 12.1271 111.137 12.2188C110.606 12.2443 107.891 12.3105 107.674 11.9972V0.356734L107.931 0.158016L107.933 0.155459ZM109.408 1.46244L109.237 1.62804V10.6061L109.408 10.7717H112.401C112.488 10.7717 113.784 10.1628 113.947 10.0431C116.15 8.44313 116.009 3.3299 113.461 1.99235C113.302 1.90828 112.131 1.45988 112.057 1.45988H109.411L109.408 1.46244Z" fill="#1E1E1E"/>
<path d="M51.7712 12.0761C51.4566 12.3767 50.082 12.4073 50.0741 11.9436L54.4386 0.290426C54.6368 0.0713237 56.022 0.0662247 56.3234 0.152847C56.5851 0.229277 56.7332 0.649658 56.8363 0.878951C57.8461 3.12347 58.7713 5.92595 59.6305 8.27238C59.8102 8.76663 60.9443 11.8213 60.8809 12.0251C60.6509 12.4837 59.4322 12.3512 59.1573 12.0532C58.7872 11.6532 58.3669 9.26597 57.9386 9.12585L52.8339 9.16152C52.5114 9.34751 52.0647 11.7958 51.7739 12.0735L51.7712 12.0761ZM53.582 7.78067C54.5707 7.91569 56.1939 7.78067 57.2645 7.78067C57.3227 7.78067 57.4522 7.59723 57.4416 7.50551L55.4246 1.90822L53.3071 7.61762C53.3071 7.65838 53.553 7.77557 53.582 7.77812V7.78067Z" fill="#1E1E1E"/>
<path d="M153.81 12.0736C153.408 11.7067 153.006 9.29404 152.726 9.12844C151.174 9.23799 149.239 8.91953 147.732 9.10296C147.605 9.11825 147.473 9.09277 147.391 9.21761C147.124 9.71696 146.696 11.7959 146.386 12.0736C146.008 12.415 145.126 12.3538 144.697 12.0914L149.252 0.15035H151.058L151.452 0.769436L155.501 11.7296C155.681 12.5347 154.164 12.3971 153.81 12.0736ZM148.197 7.7807H151.996C152.03 7.7807 152.2 7.6151 152.152 7.52593L150.04 1.90826L148.02 7.503C148.02 7.60237 148.113 7.75523 148.197 7.7807Z" fill="#1E1E1E"/>
<path d="M14.6399 0.152926C14.9624 0.0663041 16.0965 -0.0279556 16.2155 0.313436C16.39 2.80254 16.0357 5.48527 16.2261 7.95144C16.3688 9.77559 17.2623 10.973 19.282 11.0036C21.0664 11.0291 22.1291 9.92081 22.3327 8.28009L22.3485 0.315981C22.4463 0.0255436 23.8923 0.0765029 24.0087 0.237008L24.0457 8.37945C23.8976 13.1462 16.0066 13.9207 14.7457 9.59725C14.2751 7.97691 14.3544 2.58853 14.4972 0.7389C14.513 0.535084 14.5289 0.331265 14.6373 0.152926H14.6399Z" fill="#1E1E1E"/>
<path d="M193.952 7.66859V12.1016C193.304 12.3742 192.879 12.3156 192.226 12.1016V0.519747C192.226 0.496818 192.514 0.216571 192.572 0.188546C192.842 0.0713518 196.038 0.0840911 196.54 0.132497C199.308 0.400006 200.59 2.6165 199.741 5.09796C198.914 7.52082 196.225 7.69406 193.952 7.66859ZM193.952 6.22914H196.313C196.651 6.22914 197.542 5.57947 197.753 5.28903C198.38 4.42536 198.279 2.49166 197.288 1.85728C197.198 1.79869 196.476 1.46495 196.429 1.46495H193.954V6.23169L193.952 6.22914Z" fill="#1E1E1E"/>
<path d="M101.063 1.46244H95.9978V5.23049H100.315C100.719 5.59991 100.711 6.20116 100.315 6.56039H95.9978V10.7157C96.1828 10.9908 96.4472 10.7717 96.7406 10.7666C97.8747 10.7437 99.4529 10.6647 100.545 10.7717C101.539 10.8685 101.301 11.2634 101.277 12.0863C101.155 12.1449 101.018 12.1857 100.88 12.201C99.6353 12.3539 96.4023 12.3386 95.1333 12.2112C94.4751 12.1449 94.3244 12.0125 94.2636 11.3857C93.9411 8.00748 94.52 4.16555 94.2636 0.736349C94.1922 0.573296 94.602 0.132546 94.6734 0.132546H101.005C101.491 0.563107 101.245 0.975831 101.063 1.46244Z" fill="#1E1E1E"/>
<path d="M140.171 2.43311C139.902 2.76176 138.902 1.92866 138.551 1.77325C136.312 0.787291 134.118 1.62039 133.33 3.8802C132.148 7.26609 133.565 12.1297 138.207 10.6826C138.617 10.5552 139.915 9.71698 140.129 9.77812C140.393 9.85455 140.343 10.601 140.306 10.8201C140.132 11.8621 137.486 12.415 136.56 12.4226C129.555 12.4761 129.669 1.64587 134.903 0.186037C136.206 -0.178284 138.99 -0.0508972 139.976 0.957992C140.304 1.29429 140.465 2.07643 140.174 2.43311H140.171Z" fill="#1E1E1E"/>
<path d="M4.60242 5.89546L7.30941 0.244668C7.85134 -0.0585084 8.40119 0.0892536 8.97749 0.132565L8.92462 0.690511L5.32411 7.53109L5.27917 12.0303C5.15492 12.3819 3.69568 12.4532 3.57143 11.8189C3.32029 10.5578 3.77499 8.64188 3.53971 7.30434L0.0660887 0.675234L0 0.130019C0.523423 0.0918039 1.40108 -0.0610633 1.79233 0.344021L4.60242 5.89291V5.89546Z" fill="#1E1E1E"/>
<path d="M181.982 0.132546V10.7717H186.529C186.851 10.7717 187.192 12.0634 186.41 12.2112C184.718 12.0914 182.78 12.3793 181.117 12.2112C180.456 12.1449 180.308 12.0099 180.248 11.3857C179.92 7.94634 180.494 4.01779 180.266 0.527438L180.454 0.132546H181.982Z" fill="#1E1E1E"/>
<path d="M161.148 0.132546H162.676C162.821 0.1835 162.848 0.40005 162.864 0.529983C163.165 2.85094 162.962 6.93745 162.88 9.39343C162.864 9.84182 162.541 10.4176 162.932 10.7743H167.308C167.654 10.7743 167.638 11.8392 167.58 12.0889C167.487 12.1348 167.384 12.1679 167.281 12.1857C166.298 12.359 163.197 12.3105 162.124 12.2188C161.801 12.1908 161.383 12.1577 161.148 11.9386V0.132546Z" fill="#1E1E1E"/>
<path d="M124.987 0.147842L125.005 11.936C124.91 12.4074 123.499 12.4711 123.39 11.936V0.407711L123.501 0.183517C124.011 0.0179162 124.469 0.0535768 124.987 0.147842Z" fill="#1E1E1E"/>
</svg>
